src/assets/smallLogo.svg

<svg width="45" height="46" viewBox="0 0 45 46" fill="none" xmlns="http://www.w3.org/2000/svg">
<g filter="url(#filter0_d)">
<path d="M4.49636 8.53658C4.54846 5.56828 6.99697 3.20424 9.96527 3.25634L35.5736 3.70583C38.5419 3.75793 40.9059 6.20645 40.8538 9.17474L40.4043 34.783C40.3522 37.7513 37.9037 40.1154 34.9354 40.0633L9.32711 39.6138C6.35881 39.5617 3.99476 37.1132 4.04687 34.1449L4.49636 8.53658Z" fill="#0063B5"/>
<mask id="mask0" mask-type="alpha" maskUnits="userSpaceOnUse" x="1" y="1" width="43" height="43">
<rect x="34.9452" width="36.363" height="36.363" rx="6.97645" transform="rotate(73.9481 34.9452 0)" fill="#3793DF"/>
</mask>
<g mask="url(#mask0)">
<path fill-rule="evenodd" clip-rule="evenodd" d="M9.54416 17.7047L17.5914 12.6604L18.1453 12.6679L18.7725 12.1176L19.2032 12.1235L17.1253 14.3305L17.6791 14.338L20.1316 11.8877L20.5623 11.8935L19.1639 13.9856L20.8909 13.8227L21.5509 11.7207L21.9816 11.7265L21.5076 13.769L23.6614 13.7982L23.0906 11.6794L23.4927 11.6849L24.3383 13.8073L26.0614 13.8307L24.688 11.8253L25.1803 11.8319L27.5946 14.0998L27.9638 14.1048L25.9148 12.0282L26.5302 12.0365L35.6572 17.0651L35.2788 17.4946L35.9452 18.0003L35.2539 18.6739L36.0421 19.2434L35.2905 19.8541L35.4699 20.1049L27.09 26.3243L26.637 26.3181V48.1178H24.6629V25.5326C24.2804 25.4826 23.8305 25.4436 23.3056 25.4187V48.1178H19.3572V25.6676C19.2259 25.6999 19.1017 25.7357 18.9871 25.7752V48.1178H18.432V26.0594C18.3151 26.1562 18.2417 26.266 18.2246 26.3904L17.7323 26.3837L9.7234 20.8736L9.79543 20.3778L9.06616 19.9333L9.75489 19.3839L9.0924 18.6919L9.77981 18.2045L9.54416 17.7047ZM18.432 25.5057V25.5204L11.1922 19.1207L11.3049 18.6678C11.484 18.5848 11.6766 18.5037 11.8816 18.4248L12.0586 18.7593L18.432 25.5057ZM13.5383 17.9C12.9246 18.0617 12.3681 18.2373 11.8816 18.4248L11.5305 17.7611L11.3049 18.6678C10.8165 18.894 10.4279 19.1345 10.1586 19.3856L10.1832 18.0769C12.756 15.7471 26.4255 13.7108 34.9261 17.5804L34.9026 18.8268C34.6149 18.6769 34.311 18.5363 33.9926 18.4045C34.0193 18.0508 34.048 17.5186 34.0074 17.4316L33.3615 18.1614C32.8234 17.9685 32.2512 17.798 31.6517 17.6483L31.6777 16.5354L31.0495 17.507C30.266 17.3343 29.4423 17.1948 28.5929 17.086L28.2982 16.0556L27.8513 16.9776L27.843 16.9984C26.8165 16.8899 25.7594 16.8237 24.696 16.7953L24.5412 15.8799L24.3018 16.7866C23.1538 16.766 22.0019 16.7889 20.8765 16.8499L20.6913 15.8187L20.5723 15.8172L20.4405 16.8755C19.3573 16.944 18.3027 17.0475 17.3041 17.1811L16.8043 16.2466L16.6538 17.2736C15.8001 17.4024 14.9942 17.5535 14.255 17.7236L13.7721 16.7503L13.5383 17.9ZM13.5383 17.9C13.7693 17.8392 14.0084 17.7803 14.255 17.7236L14.2975 17.8093L19.1985 25.1748L13.4958 18.109L13.5383 17.9ZM16.6538 17.2736L16.5873 17.728L20.1902 24.8831L17.5034 17.5537L17.3041 17.1811C17.0845 17.2105 16.8677 17.2414 16.6538 17.2736ZM21.728 24.8765L20.4264 16.9887L20.4405 16.8755C20.5853 16.8663 20.7307 16.8578 20.8765 16.8499L20.9025 16.9946L21.7299 24.8765L21.728 24.8765ZM23.2108 24.8528L24.2162 17.1108L24.3018 16.7866C24.4332 16.7889 24.5646 16.7918 24.696 16.7953L24.7504 17.1175L23.2126 24.8528L23.2108 24.8528ZM24.7309 24.8286L27.843 16.9984C28.0949 17.025 28.345 17.0542 28.5929 17.086L28.6354 17.2345L24.7617 24.8281L24.7309 24.8286ZM24.6629 24.9997L24.6232 25.0994L24.6629 25.0218V24.9997ZM26.3316 24.803L31.0495 17.507C31.253 17.5519 31.4538 17.599 31.6517 17.6483L31.6502 17.7109L26.376 24.8023L26.3316 24.803ZM33.3615 18.1614C33.5775 18.2388 33.7881 18.3198 33.9926 18.4045C33.9887 18.4563 33.9848 18.5044 33.9812 18.5466L26.9002 25.4614L33.3615 18.1614ZM17.9033 25.8931L10.262 19.4071L10.2445 20.1517L17.9033 25.8931ZM34.953 19.6082L34.969 18.9261L27.3267 25.7795L34.953 19.6082Z" fill="white"/>
</g>
<path d="M36.4317 5.16572C35.6108 2.31271 32.6325 0.66535 29.7795 1.48624L5.16584 8.56824C2.31283 9.38913 0.665472 12.3674 1.48636 15.2204L8.56836 39.8341C9.38925 42.6871 12.3675 44.3344 15.2205 43.5135L18.4322 42.5894V26.0194C18.3277 26.1109 18.2623 26.214 18.2467 26.33L17.7532 26.3216L9.70183 20.8174L9.77186 20.325L9.03897 19.8806L9.72688 19.337L9.05984 18.647L9.74671 18.165L9.50833 17.6673L17.5522 12.6823L18.1073 12.6917L18.7335 12.147L19.1653 12.1543L17.0922 14.3404L17.6473 14.3498L20.0947 11.9232L20.5265 11.9305L19.134 14.0048L20.8643 13.849L21.5166 11.7622L21.9484 11.7695L21.4822 13.7977L23.6411 13.8342L23.0597 11.7266L23.4628 11.7334L24.3196 13.8457L26.0467 13.875L24.6614 11.8771L25.1549 11.8854L27.5846 14.1478L27.9547 14.1541L25.892 12.083L26.5088 12.0934L35.6788 17.123L35.3014 17.5486L35.9716 18.0535L35.2816 18.7205L36.0741 19.2893L35.3235 19.8936L35.5043 20.1434L27.1323 26.2953L26.6373 26.2869V40.2286L39.8342 36.4315C42.6872 35.6106 44.3345 32.6324 43.5137 29.7794L36.4317 5.16572Z" fill="#3793DF"/>
<path d="M24.663 40.7967V25.4957C24.2794 25.4458 23.8295 25.4064 23.3058 25.3806V41.1872L24.663 40.7967Z" fill="#3793DF"/>
<path d="M19.3575 42.3232V25.6207C19.2259 25.6531 19.1017 25.6889 18.9873 25.7285V42.4297L19.3575 42.3232Z" fill="#3793DF"/>
<path fill-rule="evenodd" clip-rule="evenodd" d="M18.4322 25.4763V25.4532L12.02 18.7587L11.8332 18.413C12.319 18.226 12.8767 18.0509 13.4929 17.89L13.4501 18.1042L19.2538 25.1747L14.2573 17.8094L14.2094 17.7153C14.9473 17.5472 15.7525 17.3981 16.6061 17.2712L16.5416 17.7246L20.2459 24.8829L17.47 17.5552L17.2635 17.1792C18.2593 17.0482 19.3115 16.947 20.3926 16.8803L20.3795 16.9875L21.782 24.8756L21.784 24.8755L20.8729 16.9958L20.8457 16.8545C21.9763 16.7954 23.1339 16.7743 24.2879 16.7965L24.2028 17.1139L23.2101 24.8528L23.2115 24.8527L24.758 17.1233L24.7001 16.8063C25.7598 16.8364 26.8133 16.9037 27.8366 17.0124L24.7236 24.8286L24.7529 24.8281L28.643 17.2507L28.5988 17.1018C29.4472 17.2111 30.27 17.3505 31.0528 17.5227L26.3162 24.8032L26.3588 24.8025L31.6582 17.7336L31.6593 17.6647C32.2599 17.8141 32.8331 17.9844 33.3721 18.1766L26.9003 25.4275L33.9885 18.5753C33.9922 18.5288 33.9962 18.4752 34.0002 18.4172C34.3182 18.548 34.6219 18.6875 34.9095 18.8361L34.9304 17.6025C26.419 13.7563 12.7493 15.7462 10.1807 18.0474L10.1587 19.3428C10.4201 19.1016 10.7942 18.8707 11.2632 18.6532L11.1502 19.1142L18.4322 25.4763ZM34.0002 18.4172C33.7966 18.3334 33.5871 18.2533 33.3721 18.1766L34.0073 17.465C34.0482 17.5504 34.0243 18.0652 34.0002 18.4172ZM31.6593 17.6647C31.4601 17.615 31.2578 17.5677 31.0528 17.5227L31.678 16.5616L31.6593 17.6647ZM28.5988 17.1018C28.3468 17.0694 28.0927 17.0396 27.8366 17.0124L27.8453 16.9904L28.2928 16.0725L28.5988 17.1018ZM24.7001 16.8063C24.5628 16.8025 24.4254 16.7992 24.2879 16.7965L24.5321 15.8854L24.7001 16.8063ZM20.8457 16.8545C20.6941 16.8624 20.5431 16.8711 20.3926 16.8803L20.5227 15.8176L20.646 15.8197L20.8457 16.8545ZM17.2635 17.1792L16.7517 16.2473L16.6061 17.2712C16.8222 17.2391 17.0414 17.2084 17.2635 17.1792ZM14.2094 17.7153C13.9628 17.7714 13.7237 17.8297 13.4929 17.89L13.7198 16.7514L14.2094 17.7153ZM11.2632 18.6532L11.4816 17.7624L11.8332 18.413C11.6303 18.491 11.44 18.5712 11.2632 18.6532Z" fill="#3793DF"/>
<path d="M24.6233 25.0804L24.663 24.9808V25.0031L24.6233 25.0804Z" fill="#3793DF"/>
<path d="M10.2196 19.407L17.9459 25.893L10.2071 20.1472L10.2196 19.407Z" fill="#3793DF"/>
<path d="M34.9693 18.962L34.9578 19.6406L27.327 25.7432L34.9693 18.962Z" fill="#3793DF"/>
</g>
<defs>
<filter id="filter0_d" x="0.454632" y="1.27527" width="44.0908" height="44.0908" filterUnits="userSpaceOnUse" color-interpolation-filters="sRGB">
<feFlood flood-opacity="0" result="BackgroundImageFix"/>
<feColorMatrix in="SourceAlpha" type="matrix" values="0 0 0 0 0 0 0 0 0 0 0 0 0 0 0 0 0 0 127 0"/>
<feOffset dy="0.820758"/>
<feGaussianBlur stdDeviation="0.410379"/>
<feColorMatrix type="matrix" values="0 0 0 0 0 0 0 0 0 0 0 0 0 0 0 0 0 0 0.25 0"/>
<feBlend mode="normal" in2="BackgroundImageFix" result="effect1_dropShadow"/>
<feBlend mode="normal" in="SourceGraphic" in2="effect1_dropShadow" result="shape"/>
</filter>
</defs>
</svg>

<svg width="45" height="46" fill="none" xmlns="http://www.w3.org/2000/svg"><g filter="url(#filter0_d)"><path d="M4.496 8.537a5.375 5.375 0 015.47-5.28l25.608.449a5.375 5.375 0 015.28 5.469l-.45 25.608a5.375 5.375 0 01-5.469 5.28l-25.608-.45a5.375 5.375 0 01-5.28-5.468l.45-25.608z" fill="#0063B5"/><mask id="a" maskUnits="userSpaceOnUse" x="1" y="1" width="43" height="43"><rect x="34.945" width="36.363" height="36.363" rx="6.976" transform="rotate(73.948 34.945 0)" fill="#3793DF"/></mask><g mask="url(#a)"><path fill-rule="evenodd" clip-rule="evenodd" d="M9.544 17.705l8.047-5.045.554.008.628-.55.43.005-2.078 2.208.554.007 2.453-2.45.43.005-1.398 2.093 1.727-.163.66-2.102.43.005-.473 2.043 2.153.03-.57-2.12.402.006.845 2.122 1.723.024-1.373-2.006.492.007 2.415 2.268.369.005-2.05-2.077.616.008 9.127 5.03-.378.429.666.505-.691.674.788.57-.752.61.18.25-8.38 6.22-.453-.006v21.8h-1.974V25.533c-.383-.05-.832-.09-1.357-.114v22.699h-3.949v-22.45a4.277 4.277 0 00-.37.107v22.343h-.555V26.059a.53.53 0 00-.207.331l-.493-.006-8.009-5.51.072-.496-.729-.445.689-.55-.663-.691.688-.488-.236-.5zm8.888 7.8v.015l-7.24-6.4.113-.452c.179-.083.372-.164.577-.243l.177.334 6.373 6.747zM13.538 17.9a15.95 15.95 0 00-1.656.525l-.351-.664-.226.907c-.489.226-.877.466-1.146.718l.024-1.31c2.573-2.329 16.242-4.365 24.743-.496l-.023 1.247c-.288-.15-.592-.29-.91-.423.026-.353.055-.885.014-.972l-.645.73a18 18 0 00-1.71-.514l.026-1.113-.629.972a27.946 27.946 0 00-2.456-.421l-.295-1.03-.447.922-.008.02a40.287 40.287 0 00-3.147-.203l-.155-.915-.24.907c-1.147-.021-2.3.002-3.424.063l-.186-1.031-.119-.002-.131 1.058a45.344 45.344 0 00-3.137.306l-.5-.934-.15 1.027c-.854.128-1.66.28-2.399.45l-.483-.974-.234 1.15zm0 0c.231-.06.47-.12.717-.176l.042.085 4.901 7.366-5.702-7.066.042-.209zm3.116-.626l-.067.454 3.603 7.155-2.687-7.33-.199-.372c-.22.03-.436.06-.65.093zm5.074 7.602l-1.302-7.887.015-.114.436-.025.026.145.827 7.881h-.002zm1.483-.023l1.005-7.742.086-.324.394.008.054.322-1.537 7.736h-.002zm1.52-.024l3.112-7.83c.252.026.502.055.75.087l.042.149-3.873 7.593h-.031zm-.068.17l-.04.1.04-.077V25zm1.669-.196l4.717-7.296c.204.045.405.092.603.141l-.002.063-5.274 7.091-.044.001zm7.03-6.642c.215.078.426.159.63.243l-.01.143L26.9 25.46l6.462-7.3zm-15.459 7.732l-7.641-6.486-.018.745 7.66 5.741zm17.05-6.285l.016-.682-7.642 6.854 7.626-6.172z" fill="#fff"/></g><path d="M36.432 5.166a5.375 5.375 0 00-6.653-3.68L5.166 8.568c-2.853.821-4.5 3.8-3.68 6.652l7.082 24.614c.821 2.853 3.8 4.5 6.652 3.68l3.212-.925V26.02a.506.506 0 00-.185.311l-.494-.008-8.051-5.505.07-.492-.733-.444.688-.544-.667-.69.687-.482-.239-.498 8.044-4.985.555.01.627-.545.431.007-2.073 2.186.555.01 2.448-2.427.431.008-1.392 2.074 1.73-.156.653-2.087.431.008-.466 2.028 2.16.036-.582-2.107.403.006.857 2.113 1.727.029-1.386-1.998.494.008 2.43 2.263.37.006-2.063-2.071.617.01 9.17 5.03-.378.426.67.505-.69.667.793.568-.75.605.18.25-8.372 6.151-.495-.008v13.942l13.197-3.797c2.853-.821 4.5-3.8 3.68-6.653L36.432 5.166z" fill="#3793DF"/><path d="M24.663 40.797V25.496c-.384-.05-.834-.09-1.357-.115v15.806l1.357-.39zM19.358 42.323V25.621a4.227 4.227 0 00-.37.108v16.7l.37-.106z" fill="#3793DF"/><path fill-rule="evenodd" clip-rule="evenodd" d="M18.432 25.476v-.023L12.02 18.76l-.187-.346a15.723 15.723 0 011.66-.523l-.043.214 5.804 7.07-4.997-7.365-.048-.094a32.133 32.133 0 012.397-.444l-.064.454 3.704 7.158-2.776-7.328-.206-.376a45.665 45.665 0 013.129-.299l-.014.108 1.403 7.888h.002l-.911-7.88-.027-.141a48.38 48.38 0 013.442-.058l-.085.317-.993 7.739h.002l1.546-7.73-.058-.317c1.06.03 2.113.098 3.137.206l-3.113 7.817h.029l3.89-7.578-.044-.15c.848.11 1.671.25 2.454.422l-4.737 7.28h.043l5.3-7.07v-.068c.6.15 1.174.32 1.713.512l-6.472 7.25 7.089-6.852.011-.158c.318.131.622.27.91.42l.02-1.235c-8.511-3.846-22.18-1.856-24.75.445l-.021 1.296c.261-.241.635-.472 1.104-.69l-.113.461 7.282 6.362zM34 18.417a14.084 14.084 0 00-.628-.24l.635-.712c.041.085.017.6-.007.952zm-2.34-.752c-.2-.05-.402-.097-.607-.142l.625-.961-.019 1.103zm-3.061-.563a34.794 34.794 0 00-.762-.09l.008-.022.448-.917.306 1.029zm-3.899-.296a51.31 51.31 0 00-.412-.01l.244-.91.168.92zm-3.854.049c-.152.007-.303.016-.453.025l.13-1.062.123.002.2 1.035zm-3.582.324l-.512-.932-.146 1.024c.216-.032.435-.063.657-.092zm-3.055.536a23.17 23.17 0 00-.716.175l.227-1.139.49.964zm-2.946.938l.219-.89.351.65a9.223 9.223 0 00-.57.24z" fill="#3793DF"/><path d="M24.623 25.08l.04-.1v.023l-.04.077zM10.22 19.407l7.726 6.486-7.739-5.746.013-.74zM34.97 18.962l-.012.679-7.631 6.102 7.642-6.781z" fill="#3793DF"/></g><defs><filter id="filter0_d" x=".455" y="1.275" width="44.091" height="44.091" filterUnits="userSpaceOnUse" color-interpolation-filters="sRGB"><feFlood flood-opacity="0" result="BackgroundImageFix"/><feColorMatrix in="SourceAlpha" values="0 0 0 0 0 0 0 0 0 0 0 0 0 0 0 0 0 0 127 0"/><feOffset dy=".821"/><feGaussianBlur stdDeviation=".41"/><feColorMatrix values="0 0 0 0 0 0 0 0 0 0 0 0 0 0 0 0 0 0 0.25 0"/><feBlend in2="BackgroundImageFix" result="effect1_dropShadow"/><feBlend in="SourceGraphic" in2="effect1_dropShadow" result="shape"/></filter></defs></svg>
